icons/line/presentation-report.svg

<svg width="24" height="24" viewBox="0 0 24 24" fill="none" xmlns="http://www.w3.org/2000/svg">
<path d="M12 16H18C19.1046 16 20 15.1046 20 14V6C20 4.89543 19.1046 4 18 4H6C4.89543 4 4 4.89543 4 6V14C4 15.1046 4.89543 16 6 16H12ZM12 16L8 20M12 16L16 20M12 10V12M16 12V8M8 12H8.01" stroke="currentColor" stroke-width="2" stroke-linecap="round" stroke-linejoin="round"/>
</svg>

<svg width="24" height="24" fill="none" xmlns="http://www.w3.org/2000/svg"><path d="M12 16h6a2 2 0 002-2V6a2 2 0 00-2-2H6a2 2 0 00-2 2v8a2 2 0 002 2h6zm0 0l-4 4m4-4l4 4m-4-10v2m4 0V8m-8 4h.01" stroke="currentColor" stroke-width="2" stroke-linecap="round" stroke-linejoin="round"/></svg>
